Origami/64x64/apps/alexandra.svg

<svg width="64" height="64" version="1.1" viewBox="0 0 64 64" xmlns="http://www.w3.org/2000/svg">
 <path d="m18 4.9999992a14 14 0 0 0 -14 14.000001 14 14 0 0 0 4.289 10.062c-0.1792 0.416-0.289 0.876-0.289 1.376v8.562a2 2 0 0 0 -2 2 2 2 0 0 0 2 2v9.36c0 1.682 1.15 3.038 2.5782 3.038h9.0546l-3.3204 3.48a2.3388 1.41476 0 0 0 2.0274 2.122h21.324a2.3388 1.41476 0 0 0 2.336 -1.458 2.3388 1.41476 0 0 0 -0.312 -0.664l-3.32-3.48h9.054c1.428 0 2.578-1.356 2.578-3.038v-6.786l2.292 1.516 5.586 3.696a1.41476 1.61912 0 0 0 2.122 -1.408v-14.76a1.41476 1.61912 0 0 0 -1.458 -1.618 1.41476 1.61912 0 0 0 -0.664 0.218l-5.586 3.688-2.292 1.516v-7.984c0-0.494-0.108-0.952-0.286-1.364a14 14 0 0 0 4.286 -10.074 14 14 0 0 0 -14 -14.000001 14 14 0 0 0 -10.992 5.3553998 14 14 0 0 0 -11.008 -5.3553998z" style="opacity:.2"/>
 <path d="m18 4.0011996a14 14 0 0 0 -14 14 14 14 0 0 0 4.289 10.062c-0.1792 0.416-0.289 0.876-0.289 1.376v8.562a2 2 0 0 0 -2 2 2 2 0 0 0 2 2v9.36c0 1.682 1.15 3.038 2.5782 3.038h9.0546l-3.3204 3.48a2.3388 1.41476 0 0 0 2.0274 2.122h21.324a2.3388 1.41476 0 0 0 2.336 -1.458 2.3388 1.41476 0 0 0 -0.312 -0.664l-3.32-3.48h9.054c1.428 0 2.578-1.356 2.578-3.038v-6.786l2.292 1.516 5.586 3.696a1.41476 1.61912 0 0 0 2.122 -1.408v-14.76a1.41476 1.61912 0 0 0 -1.458 -1.618 1.41476 1.61912 0 0 0 -0.664 0.218l-5.586 3.688-2.292 1.516v-7.984c0-0.494-0.108-0.952-0.286-1.364a14 14 0 0 0 4.286 -10.074 14 14 0 0 0 -14 -14 14 14 0 0 0 -10.992 5.3554 14 14 0 0 0 -11.008 -5.3554z" style="fill:#11ab66"/>
 <path d="m17 11c-3.8542 0-7 3.1458-7 7 0 3.854 3.1458 7 7 7 3.854 0 7-3.146 7-7 0-3.8542-3.146-7-7-7zm24 0c-3.854 0-7 3.1458-7 7 0 3.854 3.146 7 7 7s7-3.146 7-7c0-3.8542-3.146-7-7-7zm-24 2c2.774 0 5 2.2268 5 5 0 2.774-2.226 5-5 5-2.7732 0-5-2.226-5-5 0-2.7732 2.2268-5 5-5zm24 0c2.774 0 5 2.2268 5 5 0 2.774-2.226 5-5 5s-5-2.226-5-5c0-2.7732 2.226-5 5-5z" style="opacity:.2"/>
 <path d="m17 10.0012c-3.8542 0-7 3.1458-7 7 0 3.854 3.1458 7 7 7 3.854 0 7-3.146 7-7 0-3.8542-3.146-7-7-7zm24 0c-3.854 0-7 3.1458-7 7 0 3.854 3.146 7 7 7s7-3.146 7-7c0-3.8542-3.146-7-7-7zm-24 2c2.774 0 5 2.2268 5 5 0 2.774-2.226 5-5 5-2.7732 0-5-2.226-5-5 0-2.7732 2.2268-5 5-5zm24 0c2.774 0 5 2.2268 5 5 0 2.774-2.226 5-5 5s-5-2.226-5-5c0-2.7732 2.226-5 5-5z" style="fill:#ffffff"/>
 <path d="m18 4.0019531a14 14 0 0 0 -14 14 14 14 0 0 0 0.0214844 0.40625 14 14 0 0 1 13.978516 -13.408203 14 14 0 0 1 11.007812 5.355469 14 14 0 0 1 10.992188 -5.355469 14 14 0 0 1 13.974609 13.505859 14 14 0 0 0 0.025391 -0.503906 14 14 0 0 0 -14 -14 14 14 0 0 0 -10.992188 5.3554688 14 14 0 0 0 -11.007812 -5.3554688zm-9.9335938 24.826172c-0.0364206 0.197369-0.0664062 0.399263-0.0664062 0.611328v0.998047c0-0.5 0.1098625-0.959 0.2890625-1.375a14 14 0 0 1 -0.2226563 -0.234375zm41.869141 0.009766a14 14 0 0 1 -0.222656 0.236328c0.178 0.412 0.287109 0.869281 0.287109 1.363281v-0.998047c0-0.208434-0.028854-0.406698-0.064453-0.601562zm8.605469 3.164062a1.41476 1.61912 0 0 0 -0.664063 0.216797l-5.585937 3.6875-2.291016 1.517578v0.998047l2.291016-1.515625 5.585937-3.6875a1.41476 1.61912 0 0 1 0.664063 -0.21875 1.41476 1.61912 0 0 1 1.458984 1.617188v-0.998047a1.41476 1.61912 0 0 0 -1.458984 -1.617188zm-50.541016 6a2 2 0 0 0 -2 2 2 2 0 0 0 0.0644531 0.496094 2 2 0 0 1 1.9355469 -1.498047v-0.998047zm10.679688 17.396485l-2.367188 2.480468a2.3388 1.41476 0 0 0 -0.162109 1.208985 2.3388 1.41476 0 0 1 0.162109 -0.208985l3.320312-3.480468h-0.953124zm19.6875 0l3.320312 3.480468a2.3388 1.41476 0 0 1 0.160156 0.207032 2.3388 1.41476 0 0 0 0.152344 -0.542969 2.3388 1.41476 0 0 0 -0.3125 -0.664063l-2.367188-2.480468h-0.953124z" style="fill:#ffffff;opacity:.2"/>
</svg>

<svg xmlns="http://www.w3.org/2000/svg" width="64" height="64" version="1.1" viewBox="0 0 64 64">
 <path style="opacity:0.2" d="M 18,4.9999992 A 14,14 0 0 0 4,19 14,14 0 0 0 8.289,29.062 C 8.1098,29.478 8,29.938 8,30.438 L 8,39 a 2,2 0 0 0 -2,2 2,2 0 0 0 2,2 l 0,9.36 c 0,1.682 1.15,3.038 2.5782,3.038 l 9.0546,0 -3.3204,3.48 A 2.3388,1.41476 0 0 0 18.3398,61 l 21.324,0 a 2.3388,1.41476 0 0 0 2.336,-1.458 2.3388,1.41476 0 0 0 -0.312,-0.664 l -3.32,-3.48 9.054,0 c 1.428,0 2.578,-1.356 2.578,-3.038 l 0,-6.786 2.292,1.516 5.586,3.696 a 1.41476,1.61912 0 0 0 2.122,-1.408 l 0,-14.76 A 1.41476,1.61912 0 0 0 58.5418,33 a 1.41476,1.61912 0 0 0 -0.664,0.218 l -5.586,3.688 -2.292,1.516 0,-7.984 c 0,-0.494 -0.108,-0.952 -0.286,-1.364 A 14,14 0 0 0 53.9998,19 14,14 0 0 0 39.9998,4.9999992 14,14 0 0 0 29.0078,10.355399 14,14 0 0 0 17.9998,4.9999992 Z"/>
 <path style="fill:#11ab66" d="M 18,4.0011996 A 14,14 0 0 0 4,18.0012 14,14 0 0 0 8.289,28.0632 C 8.1098,28.4792 8,28.9392 8,29.4392 l 0,8.562 a 2,2 0 0 0 -2,2 2,2 0 0 0 2,2 l 0,9.36 c 0,1.682 1.15,3.038 2.5782,3.038 l 9.0546,0 -3.3204,3.48 a 2.3388,1.41476 0 0 0 2.0274,2.122 l 21.324,0 a 2.3388,1.41476 0 0 0 2.336,-1.458 2.3388,1.41476 0 0 0 -0.312,-0.664 l -3.32,-3.48 9.054,0 c 1.428,0 2.578,-1.356 2.578,-3.038 l 0,-6.786 2.292,1.516 5.586,3.696 a 1.41476,1.61912 0 0 0 2.122,-1.408 l 0,-14.76 a 1.41476,1.61912 0 0 0 -1.458,-1.618 1.41476,1.61912 0 0 0 -0.664,0.218 l -5.586,3.688 -2.292,1.516 0,-7.984 c 0,-0.494 -0.108,-0.952 -0.286,-1.364 a 14,14 0 0 0 4.286,-10.074 14,14 0 0 0 -14,-14.0000004 14,14 0 0 0 -10.992,5.3554 14,14 0 0 0 -11.008,-5.3554 z"/>
 <path style="opacity:0.2" d="m 17,11 c -3.8542,0 -7,3.1458 -7,7 0,3.854 3.1458,7 7,7 3.854,0 7,-3.146 7,-7 0,-3.8542 -3.146,-7 -7,-7 z m 24,0 c -3.854,0 -7,3.1458 -7,7 0,3.854 3.146,7 7,7 3.854,0 7,-3.146 7,-7 0,-3.8542 -3.146,-7 -7,-7 z m -24,2 c 2.774,0 5,2.2268 5,5 0,2.774 -2.226,5 -5,5 -2.7732,0 -5,-2.226 -5,-5 0,-2.7732 2.2268,-5 5,-5 z m 24,0 c 2.774,0 5,2.2268 5,5 0,2.774 -2.226,5 -5,5 -2.774,0 -5,-2.226 -5,-5 0,-2.7732 2.226,-5 5,-5 z"/>
 <path style="fill:#ffffff" d="m 17,10.0012 c -3.8542,0 -7,3.1458 -7,7 0,3.854 3.1458,7 7,7 3.854,0 7,-3.146 7,-7 0,-3.8542 -3.146,-7 -7,-7 z m 24,0 c -3.854,0 -7,3.1458 -7,7 0,3.854 3.146,7 7,7 3.854,0 7,-3.146 7,-7 0,-3.8542 -3.146,-7 -7,-7 z m -24,2 c 2.774,0 5,2.2268 5,5 0,2.774 -2.226,5 -5,5 -2.7732,0 -5,-2.226 -5,-5 0,-2.7732 2.2268,-5 5,-5 z m 24,0 c 2.774,0 5,2.2268 5,5 0,2.774 -2.226,5 -5,5 -2.774,0 -5,-2.226 -5,-5 0,-2.7732 2.226,-5 5,-5 z"/>
 <path style="fill:#ffffff;opacity:0.2" d="M 18 4.0019531 A 14 14 0 0 0 4 18.001953 A 14 14 0 0 0 4.0214844 18.408203 A 14 14 0 0 1 18 5 A 14 14 0 0 1 29.007812 10.355469 A 14 14 0 0 1 40 5 A 14 14 0 0 1 53.974609 18.505859 A 14 14 0 0 0 54 18.001953 A 14 14 0 0 0 40 4.0019531 A 14 14 0 0 0 29.007812 9.3574219 A 14 14 0 0 0 18 4.0019531 z M 8.0664062 28.828125 C 8.0299856 29.025494 8 29.227388 8 29.439453 L 8 30.4375 C 8 29.9375 8.1098625 29.4785 8.2890625 29.0625 A 14 14 0 0 1 8.0664062 28.828125 z M 49.935547 28.837891 A 14 14 0 0 1 49.712891 29.074219 C 49.890891 29.486219 50 29.9435 50 30.4375 L 50 29.439453 C 50 29.231019 49.971146 29.032755 49.935547 28.837891 z M 58.541016 32.001953 A 1.41476 1.61912 0 0 0 57.876953 32.21875 L 52.291016 35.90625 L 50 37.423828 L 50 38.421875 L 52.291016 36.90625 L 57.876953 33.21875 A 1.41476 1.61912 0 0 1 58.541016 33 A 1.41476 1.61912 0 0 1 60 34.617188 L 60 33.619141 A 1.41476 1.61912 0 0 0 58.541016 32.001953 z M 8 38.001953 A 2 2 0 0 0 6 40.001953 A 2 2 0 0 0 6.0644531 40.498047 A 2 2 0 0 1 8 39 L 8 38.001953 z M 18.679688 55.398438 L 16.3125 57.878906 A 2.3388 1.41476 0 0 0 16.150391 59.087891 A 2.3388 1.41476 0 0 1 16.3125 58.878906 L 19.632812 55.398438 L 18.679688 55.398438 z M 38.367188 55.398438 L 41.6875 58.878906 A 2.3388 1.41476 0 0 1 41.847656 59.085938 A 2.3388 1.41476 0 0 0 42 58.542969 A 2.3388 1.41476 0 0 0 41.6875 57.878906 L 39.320312 55.398438 L 38.367188 55.398438 z"/>
</svg>
